X:1
T:Title
T:Novo Amanhecer
C:Composer
L:1/8
Q:3/8=50
M:6/8
K:C
V:1 treble nm="Piano" snm="Pno."
V:1
"C" z6 |"D/F#" z6 |"F" z6 | z6 |"C" z6 |"D/F#" z6 |"F" z6 |"F" z z z4 |: %8
w: ||||||||
"C"[Q:1/4=75]"^\n\n" CAG CAG |"F" C2 D C2 z |"C" CAG CAG |"F" D2 E F/E/- E2 |"G/B" B,3 z CD | %13
w: Ve- jo'u- ma'es- tre- la bri-|lhar no céu|que ma- ni- fes- ta o|seu a- mo- * or|sim nas- ce-|
"Am" C3 z CD |"C" EDC DED |"F" C6 |"G/B" B,3 z CD |"Am" C3 z CD |"C" EDC DED |"F" D C2- C3 |1 D6 | %21
w: rá no- va|lu- uz de Deus en- tre|nós|E sur- gi-|rá no- va|vi- da no- vo'a- ma- nhe-|ce- e- *|er|
"C" z6 |"D/F#" z6 |"F" z6 | z6 :|2"G" G4 z2 |:"C" c3 z BA |"D" A3 z AB |"F" c2 B AGA |"G" G4 z2 | %30
w: ||||er|Sim nas- ce-|rá o a-|mor de Deus en- tre|nós|
"C" c3 z BA |"D" A3 z AB |"F" ccB AGA- |"G" A G4 z :|[K:A] z4 FA |"A" A3 z FG |"D" AAG FEC | %37
w: Sim sur- gi-|rá en- tre'os|ho- mens o E- ma- nu-|* el|Vem mu-|dar a his-|tó- ria da hu- ma- ni-|
"F#m" E3/2F3/2 E3/2C3/2 |"Esus4" B,3"E" z FG |"A" B A2 z FG |"D" A3/2c3/2 B3/2A3/2 | %41
w: da- * de- *|e e tra-|ze- er sal- va-|ção e paz aos|
"F#m" BA/B/- B4 |"Esus4" GF/E/-E"E" z c/BA/ |"F#m" B A2 z FG |"D" AAG FEC |"A" E3/2F3/2 E3/2c3/2 | %46
w: te- * * *|e- * eus * ve- em tra-|ça- ar um ca-|mi- nho de luz de ver-|da- * de- *|
"E/G#" B3 z FG |"Bm" B A2 z FG |"A/C#" A3/2c3/2"D" B3/2A3/2 |"E" BA/B/- B4- |"E" B6 || %51
w: e on- de|na- da é'im- pos-|sí- vel a quem|crê- * ê *||
[K:C]"C" c3 z BA |"D" A3 z AB |"F" c2 B AGA | G4 z2 |"Am" c3 z BA |"D/F#" A3 z AB |"Dm" ccB AGA- | %58
w: Sim nas- ce-|rá o a-|mor de Deus en- tre|nós|Sim sur- gi-|* en- tre'os|ho- mens o E- ma- nu-|
 A G4 z |:"C" c3 z BA |"D" A3 z AB |"F" c2 B AGA |"G" G4 z2 |"C" c3 z BA |"D" A3 z AB | %65
w: * el|Sim nas- ce-|rá o a-|mor de Deus en- tre|nós|Sim sur- gi-|* en- tre'os|
"F" ccB AGA |1 A G4 z :|"Gsus4" A G4 z ||"G" z3 AGF |"C" G^F/ G7/2 F/G/ |"D" ^FE/D/- D4 |"F" c6 | %72
w: ho- mens o E- ma- nu-|* el|* el|O'E- ma- nu-|e- * * * *|* * el *|Uh|
 A3/2G3/2 FED |"C" CD/CD/ E3 |"D" z d/dd3/2 c2- |"F" c3 z z2 | z3 AGF |"C" G^F/ G4 c/- | c4- c>e- | %79
w: uh- uh O'E- ma- nu-|e- * * * el|eh * * eh||O'E- ma- nu-|e- * * *|* * el|
 !fermata!e4 z2 | z6 |] %81
w: ||

